src/power.svg

<?xml version="1.0" encoding="utf-8"?>
<!-- Generated by IcoMoon.io -->
<!DOCTYPE svg PUBLIC "-//W3C//DTD SVG 1.1//EN" "http://www.w3.org/Graphics/SVG/1.1/DTD/svg11.dtd">
<svg version="1.1" xmlns="http://www.w3.org/2000/svg" xmlns:xlink="http://www.w3.org/1999/xlink" width="512" height="512" viewBox="0 0 512 512">
<path fill="#000000" d="M256 256c-17.7 0-32-14.3-32-32v-160c0-17.7 14.3-32 32-32s32 14.3 32 32v160c0 17.7-14.3 32-32 32z"></path>
<path fill="#000000" d="M379 68.8v0c-5-3-10.8-4.8-17-4.8-17.7 0-32 14.3-32 32 0 6.2 1.8 12 4.8 16.9 2 3.2 4.6 6.1 7.6 8.4 1.2 0.9 2.4 1.7 3.7 2.5 8.1 5.6 15.8 11.9 23 19.1 30.3 30.2 46.9 70.4 46.9 113.1s-16.6 82.9-46.9 113.1c-30.2 30.3-70.4 46.9-113.1 46.9s-82.9-16.6-113.1-46.9c-30.3-30.2-46.9-70.4-46.9-113.1s16.6-82.9 46.9-113.1c7.1-7.1 14.8-13.5 22.9-19 1.4-0.8 2.6-1.6 3.9-2.6 3-2.3 5.5-5.1 7.5-8.3 3.1-4.9 4.8-10.7 4.8-16.9 0-17.7-14.3-32-32-32-6.2 0-12 1.8-16.9 4.8l-0.1-0.1c-60.8 40-101 108.9-101 187.2 0 123.7 100.3 224 224 224s224-100.3 224-224c0-78.3-40.2-147.2-101-187.2z"></path>
</svg>

<?xml version="1.0" encoding="utf-8"?>
<!-- Generator: Adobe Illustrator 16.2.1, SVG Export Plug-In . SVG Version: 6.00 Build 0)  -->
<!DOCTYPE svg PUBLIC "-//W3C//DTD SVG 1.1//EN" "http://www.w3.org/Graphics/SVG/1.1/DTD/svg11.dtd">
<svg version="1.1" id="Layer_1" xmlns="http://www.w3.org/2000/svg" xmlns:xlink="http://www.w3.org/1999/xlink" x="0px" y="0px"
	 width="512px" height="512px" viewBox="0 0 512 512" style="enable-background:new 0 0 512 512;" xml:space="preserve">
<g>
	<path d="M256,256c-17.7,0-32-14.3-32-32V64c0-17.7,14.3-32,32-32s32,14.3,32,32v160C288,241.7,273.7,256,256,256z"/>
	<path d="M379,68.8L379,68.8c-5-3-10.8-4.8-17-4.8c-17.7,0-32,14.3-32,32c0,6.2,1.8,12,4.8,16.9c2,3.2,4.6,6.1,7.6,8.4
		c1.2,0.9,2.4,1.7,3.7,2.5c8.1,5.6,15.8,11.9,23,19.1C399.4,173.1,416,213.3,416,256c0,42.7-16.6,82.9-46.9,113.1
		C338.9,399.4,298.7,416,256,416c-42.7,0-82.9-16.6-113.1-46.9C112.6,338.9,96,298.7,96,256c0-42.7,16.6-82.9,46.9-113.1
		c7.1-7.1,14.8-13.5,22.9-19c1.4-0.8,2.6-1.6,3.9-2.6c3-2.3,5.5-5.1,7.5-8.3c3.1-4.9,4.8-10.7,4.8-16.9c0-17.7-14.3-32-32-32
		c-6.2,0-12,1.8-16.9,4.8l-0.1-0.1C72.2,108.8,32,177.7,32,256c0,123.7,100.3,224,224,224c123.7,0,224-100.3,224-224
		C480,177.7,439.8,108.8,379,68.8z"/>
</g>
</svg>
